X: 37797
T: Sonny Brogan's
R: jig
M: 6/8
K: Adorian
ABA c2e|dcd ege|ABA c2e|dcA AGE|
EAA c2e|dcd ege|a^ga =ged|cAG A3:|
|:eaa aba|gef ged|eaa aba|ged cAA|
eaa aba|gef g3|a^ga =ged|cAG A3:|
cBA c2e|dcd ege|~A3 cde|dcA AGE|
cBA c2e|dcd ~e3|aba ged|cAG A3|
EGA c2c|dcd ~e3|EGA c2e|dcA AGE|
AGE c2c|dcd ~e3|aba ged|cAG A3||
|:eaa aba|gef ged|eaa aba|ged cAA|
eaa aba|gef ~g3|~a3 ged|cAG A3:|

